%
(Header)
(Generated by gcodetools from Inkscape.)
(Using default header. To add your own header create file "header" in the output dir.)
M3
(Header end.)
G21 (All units in mm)

(Start cutting path id: path4656)
(Change tool to Default tool)

G00 Z5.000000
G00 X22.591082 Y1.814256

G01 Z-0.125000 F100.0 (Penetrate)
G01 X25.194532 Y1.814256 Z-0.125000 F400.000000
G03 X29.165966 Y1.984060 Z-0.125000 I-0.000000 J46.527574
G03 X30.483429 Y2.277480 Z-0.125000 I-0.432205 J5.045039
G03 X33.046909 Y3.532401 Z-0.125000 I-3.855798 J11.122127
G03 X34.603848 Y4.951651 Z-0.125000 I-3.552817 J5.461109
G03 X35.916366 Y7.383268 Z-0.125000 I-6.321889 J4.982416
G03 X36.387314 Y10.278912 Z-0.125000 I-8.666513 J2.895644
G03 X35.822323 Y12.132483 Z-0.125000 I-3.323008 J0.000000
G03 X34.255356 Y13.458417 Z-0.125000 I-3.117166 J-2.094944
G03 X33.013603 Y13.839828 Z-0.125000 I-2.101996 J-4.631347
G03 X30.339933 Y14.153275 Z-0.125000 I-4.277067 J-24.923077
G01 X30.483429 Y14.742856 Z-0.125000
G01 X29.007458 Y14.111163 Z-0.125000
G03 X26.756536 Y13.513490 Z-0.125000 I2.343539 J-13.363575
G03 X25.174032 Y12.721446 Z-0.125000 I2.532786 J-7.037450
G03 X23.224867 Y10.670980 Z-0.125000 I3.522913 J-5.300536
G03 X22.591082 Y8.362775 Z-0.125000 I3.886278 J-2.308204
G03 X22.618522 Y7.859633 Z-0.125000 I4.626622 J0.000000
G03 X22.734580 Y7.162569 Z-0.125000 I6.273455 J0.686306
G01 X24.415547 Y7.941655 Z-0.125000
G02 X24.298480 Y8.641939 Z-0.125000 I6.259645 J1.406350
G02 X24.272049 Y9.120810 Z-0.125000 I4.324833 J0.478870
G02 X25.441989 Y11.892099 Z-0.125000 I3.867212 J0.000000
G02 X28.658964 Y13.395247 Z-0.125000 I3.769145 J-3.872576
G01 X27.121494 Y7.120466 Z-0.125000
G02 X25.490487 Y3.781802 Z-0.125000 I-7.917359 J1.800073
G02 X23.575063 Y2.782836 Z-0.125000 I-2.123531 J1.735866
G01 X22.591082 Y1.814256 Z-0.125000
G00 Z5.000000

(End cutting path id: path4656)


(Start cutting path id: path4656)
(Change tool to Default tool)

G00 Z5.000000
G00 X30.175936 Y13.500529

G01 Z-0.125000 F100.0 (Penetrate)
G02 X32.123954 Y13.280771 Z-0.125000 I-0.589749 J-13.971622 F400.000000
G02 X33.004878 Y12.974121 Z-0.125000 I-0.557178 J-3.019283
G02 X34.129417 Y11.821283 Z-0.125000 I-1.309026 J-2.401779
G02 X34.603848 Y9.857792 Z-0.125000 I-3.825866 J-1.963491
G02 X34.159923 Y6.845398 Z-0.125000 I-10.442743 J0.000000
G02 X33.004878 Y4.593685 Z-0.125000 I-6.717934 J2.023946
G02 X31.340425 Y3.299716 Z-0.125000 I-3.246042 J2.457945
G02 X28.679464 Y2.761784 Z-0.125000 I-2.660960 J6.312449
G01 X28.371971 Y2.761784 Z-0.125000
G01 X25.748021 Y2.846020 Z-0.125000
G03 X27.681001 Y5.376406 Z-0.125000 I-7.110382 J7.435175
G03 X29.048457 Y8.931315 Z-0.125000 I-12.939166 J7.017729
G01 X30.175936 Y13.500529 Z-0.125000
G00 Z5.000000

(End cutting path id: path4656)


(Footer)
M5
G00 X0.0000 Y0.0000
M2
(Using default footer. To add your own footer create file "footer" in the output dir.)
(end)
%